Yaru++/apps/scalable/octave.svg

<svg enable-background="new" height="256" viewBox="0 0 256 256" width="256" xmlns="http://www.w3.org/2000/svg" xmlns:xlink="http://www.w3.org/1999/xlink">
  <filter id="filter913" color-interpolation-filters="sRGB" height="1.025" width="1.023" x="-.01" y="-.01">
    <feGaussianBlur stdDeviation="1.287"/>
  </filter>
  <filter id="filter939" color-interpolation-filters="sRGB" height="1.098" width="1.094" x="-.05" y="-.05">
    <feGaussianBlur stdDeviation="5.147"/>
  </filter>
  <g transform="matrix(.86666673 0 0 .86666673 39.906268097 -11.14578696037)">
    <g transform="translate(9.536159 .95383)">
      <g fill="#1c1616" filter="url(#filter939)">
        <path d="m97.493527 31.767436a125.81618 125.81618 0 0 0 -125.816191 125.816184 125.81618 125.81618 0 0 0 125.816191 125.81617 125.81618 125.81618 0 0 0 125.816093-125.81617 125.81618 125.81618 0 0 0 -125.816093-125.816184zm14.297283 28.594577a94.362135 94.362135 0 0 1 94.36204 94.362157 94.362135 94.362135 0 0 1 -94.36204 94.36211 94.362135 94.362135 0 0 1 -94.362131-94.36211 94.362135 94.362135 0 0 1 94.362131-94.362157z" opacity=".1"/>
        <rect height="91.503" opacity=".1" rx="18.3" width="91.503" x="-39.77" y="111.82"/>
        <rect height="57.189" opacity=".1" rx="11.437" width="57.189" x="166.12" y="180.45"/>
        <rect height="45.752" opacity=".1" rx="9.151" width="45.752" x="143.26" y="43.19"/>
      </g>
      <g fill="#0c0c0c" filter="url(#filter913)">
        <path d="m97.493527 31.767436a125.81618 125.81618 0 0 0 -125.816191 125.816184 125.81618 125.81618 0 0 0 125.816191 125.81617 125.81618 125.81618 0 0 0 125.816093-125.81617 125.81618 125.81618 0 0 0 -125.816093-125.816184zm14.297283 28.594577a94.362135 94.362135 0 0 1 94.36204 94.362157 94.362135 94.362135 0 0 1 -94.36204 94.36211 94.362135 94.362135 0 0 1 -94.362131-94.36211 94.362135 94.362135 0 0 1 94.362131-94.362157z" opacity=".1"/>
        <rect height="91.503" opacity=".1" rx="18.3" width="91.503" x="-39.77" y="111.82"/>
        <rect height="57.189" opacity=".1" rx="11.437" width="57.189" x="166.12" y="180.45"/>
        <rect height="45.752" opacity=".1" rx="9.151" width="45.752" x="143.26" y="43.19"/>
      </g>
      <g fill="#0c0c0c">
        <path d="m97.493527 31.767436a125.81618 125.81618 0 0 0 -125.816191 125.816184 125.81618 125.81618 0 0 0 125.816191 125.81617 125.81618 125.81618 0 0 0 125.816093-125.81617 125.81618 125.81618 0 0 0 -125.816093-125.816184zm14.297283 28.594577a94.362135 94.362135 0 0 1 94.36204 94.362157 94.362135 94.362135 0 0 1 -94.36204 94.36211 94.362135 94.362135 0 0 1 -94.362131-94.36211 94.362135 94.362135 0 0 1 94.362131-94.362157z" opacity=".1"/>
        <rect height="91.503" opacity=".1" rx="18.3" width="91.503" x="-39.77" y="111.82"/>
        <rect height="57.189" opacity=".1" rx="11.437" width="57.189" x="166.12" y="180.45"/>
        <rect height="45.752" opacity=".1" rx="9.151" width="45.752" x="143.26" y="43.19"/>
      </g>
    </g>
    <path d="m106.92925 34.828172a123.60888 123.60888 0 0 0 -123.608842 123.608888 123.60888 123.60888 0 0 0 123.608842 123.60887 123.60888 123.60888 0 0 0 123.60879-123.60887 123.60888 123.60888 0 0 0 -123.60879-123.608888zm14.04645 28.092918a92.706661 92.706661 0 0 1 92.70657 92.70668 92.706661 92.706661 0 0 1 -92.70657 92.70664 92.706661 92.706661 0 0 1 -92.706603-92.70664 92.706661 92.706661 0 0 1 92.706603-92.70668z" fill="#3584e4"/>
    <path d="m106.92925 34.828172a123.60888 123.60888 0 0 0 -123.610225 123.610278 123.60888 123.60888 0 0 0 .04732.95777 123.60888 123.60888 0 0 1 123.562905-122.260356 123.60888 123.60888 0 0 1 123.56068 122.652486 123.60888 123.60888 0 0 0 .0473-1.3499 123.60888 123.60888 0 0 0 -123.60798-123.610278zm106.70371 121.757808a92.706664 92.706664 0 0 1 -92.65925 91.74879 92.706664 92.706664 0 0 1 -92.659199-91.35442 92.706664 92.706664 0 0 0 -.04732.95554 92.706664 92.706664 0 0 0 92.706519 92.70657 92.706664 92.706664 0 0 0 92.70658-92.70657 92.706664 92.706664 0 0 0 -.0473-1.34991z" fill="#fff" opacity=".3"/>
    <path d="m120.9757 60.613398a92.706664 92.706664 0 0 0 -92.70652 92.706582 92.706664 92.706664 0 0 0 .04732 1.34991 92.706664 92.706664 0 0 1 92.6592-91.7488 92.706664 92.706664 0 0 1 92.65925 91.35441 92.706664 92.706664 0 0 0 .0473-.95552 92.706664 92.706664 0 0 0 -92.70657-92.706582zm-137.607356 96.472352a123.60888 123.60888 0 0 0 -.04733 1.35216 123.60888 123.60888 0 0 0 123.607966 123.60803 123.60888 123.60888 0 0 0 123.60802-123.60803 123.60888 123.60888 0 0 0 -.0473-.95552 123.60888 123.60888 0 0 1 -123.56072 122.25585 123.60888 123.60888 0 0 1 -123.560636-122.65249z" fill="#101010" opacity=".2"/>
    <rect fill="#ff7800" height="89.898" rx="17.979" width="89.898" x="-27.92" y="113.48"/>
    <rect fill="#ff7800" height="56.186" rx="11.237" width="56.186" x="174.35" y="180.9"/>
    <rect fill="#ff7800" height="44.949" rx="8.991" width="44.949" x="151.89" y="46.05"/>
    <path d="m160.88101 45.987637c-4.98084 0-8.98963 4.011039-8.98963 8.991887v2.307692c0-4.980848 4.00879-8.991887 8.98963-8.991887h26.96665c4.98084 0 8.99189 4.011039 8.99189 8.991887v-2.307692c0-4.980848-4.01105-8.991887-8.99189-8.991887zm-170.8255074 67.425633c-9.9604026 0-17.9792636 8.0166-17.9792636 17.97702v2.30769c0-9.96042 8.018872-17.97701 17.9792636-17.97701h53.9400554c9.960427 0 17.979265 8.01659 17.979265 17.97701v-2.30769c0-9.96042-8.01885-17.97702-17.979265-17.97702zm195.5317874 67.42337c-6.22509 0-11.23648 5.01139-11.23648 11.23648v2.30769c0-6.22508 5.01139-11.23647 11.23648-11.23647h33.71169c6.2251 0 11.23648 5.01139 11.23648 11.23647v-2.30769c0-6.22509-5.01138-11.23648-11.23648-11.23648z" fill="#fff" opacity=".3"/>
    <path d="m151.85774 79.885812v2.307692c0 4.980854 4.0088 8.989638 8.98964 8.989638h26.96664c4.98084 0 8.99189-4.008784 8.99189-8.989638v-2.307692c0 4.980854-4.01105 8.989638-8.99189 8.989638h-26.96664c-4.98084 0-8.98964-4.008784-8.98964-8.989638zm-179.815137 103.384158v2.30769c0 9.96041 8.018861 17.97926 17.9792646 17.97926h53.9400554c9.960403 0 17.979264-8.01885 17.979264-17.97926v-2.30769c0 9.96041-8.018861 17.97926-17.979264 17.97926h-53.9400554c-9.9604036 0-17.9792646-8.01885-17.9792646-17.97926zm202.274577 40.45448v2.30769c0 6.22511 5.01139 11.23648 11.23648 11.23648h33.71169c6.2251 0 11.23647-5.01137 11.23647-11.23648v-2.30769c0 6.22511-5.01137 11.23647-11.23647 11.23647h-33.71169c-6.22509 0-11.23648-5.01136-11.23648-11.23647z" fill="#090909" opacity=".2"/>
  </g>
</svg>

<svg xmlns="http://www.w3.org/2000/svg" xmlns:xlink="http://www.w3.org/1999/xlink" style="enable-background:new" width="256" height="256" version="1.0" viewBox="0 0 256 256">
 <title id="title4162">
  Adwaita Icon Template
 </title>
 <defs>
  <linearGradient id="linearGradient950">
   <stop style="stop-color:#9a9996" id="stop946" offset="0"/>
   <stop style="stop-color:#77767b" id="stop948" offset="1"/>
  </linearGradient>
  <linearGradient id="linearGradient1001" x1="1660.857" x2="1662.99" y1="806.297" y2="812.882" gradientTransform="matrix(1.8293937,-0.81599442,0.81599442,1.8293937,-3645.9624,100.02949)" gradientUnits="userSpaceOnUse" xlink:href="#linearGradient950"/>
  <clipPath id="clipPath5154" clipPathUnits="userSpaceOnUse">
   <circle style="fill:url(#radialGradient5158)" cx="128" cy="924.362" r="109.647"/>
  </clipPath>
  <clipPath id="clipPath977" clipPathUnits="userSpaceOnUse">
   <circle style="fill:url(#radialGradient5158)" cx="128" cy="924.362" r="109.647"/>
  </clipPath>
  <clipPath id="clipPath4688" clipPathUnits="userSpaceOnUse">
   <path style="fill:url(#radialGradient4692);stroke:#a7003f;stroke-linecap:round;stroke-linejoin:round" d="m 106.42383,889.60156 c -2.2448,-0.0524 -4.09304,1.75264 -4.09375,3.99805 v 32.64453 32.64453 c -4e-5,3.07923 3.33305,5.004 6,3.46485 l 28.26953,-16.32227 28.27148,-16.32227 c 2.66559,-1.54001 2.66559,-5.38772 0,-6.92773 l -28.27148,-16.32227 -28.26953,-16.32226 c -0.58054,-0.3353 -1.23603,-0.51932 -1.90625,-0.53516 z"/>
  </clipPath>
  <clipPath id="clipPath4564" clipPathUnits="userSpaceOnUse">
   <circle style="fill:url(#radialGradient4568)" cx="128" cy="924.362" r="109.647"/>
  </clipPath>
  <clipPath id="clipPath6215" clipPathUnits="userSpaceOnUse">
   <path style="fill:url(#radialGradient6219)" d="m 105.17325,806.18572 c -3.06859,0.56361 -6.11393,1.24721 -9.129005,2.04923 -3.838255,1.06506 -7.62084,2.32142 -11.333578,3.76438 -3.712189,1.44307 -7.34989,3.07087 -10.899472,4.87732 -3.549153,1.80656 -7.005749,3.78947 -10.35684,5.94129 -3.351877,2.15253 -6.593991,4.47137 -9.714191,6.94783 -3.119992,2.47544 -6.114241,5.10535 -8.971529,7.87988 -0.367219,0.38909 -0.731819,0.78065 -1.093777,1.17464 2.60205,17.85956 16.832359,40.03752 30.863064,55.74236 -4.76734,8.84435 -7.265993,18.73329 -7.272057,28.78068 0.02104,2.87431 0.246096,5.7435 0.673482,8.58593 -20.257302,-9.18513 -43.077023,-26.53494 -52.798465,-47.36396 -0.440667,1.15171 -0.863474,2.31018 -1.268271,3.47498 -1.176789,3.80495 -2.162562,7.66637 -2.953625,11.56979 -0.79154,3.90311 -1.3874065,7.84335 -1.7853678,11.80598 -0.39733,3.96334 -0.5961891,7.94407 -0.5958321,11.92728 -4.394e-4,2.81936 0.098928,5.63785 0.2979155,8.45018 0.282275,3.97319 0.763088,7.92978 1.4406374,11.85493 0.625626,3.51826 1.408798,7.00668 2.347153,10.45473 16.778133,6.68355 43.114514,5.45001 63.748015,1.14301 6.818545,11.02763 16.987182,19.58379 29.018153,24.41667 -18.071844,12.93645 -44.490188,24.02095 -67.37308,22.03245 1.384097,1.665 2.813203,3.2921 4.285735,4.8794 2.774977,2.8571 5.691103,5.5737 8.737453,8.1395 3.046107,2.5658 6.218619,4.9777 9.505651,7.2266 3.287242,2.2488 6.684891,4.3319 10.180217,6.2413 3.495379,1.9096 7.084075,3.6433 10.752641,5.1944 3.66896,1.5509 7.413193,2.9174 11.218668,4.0942 1.438565,0.3959 2.884421,0.7648 4.336807,1.1066 14.138748,-11.1844 26.206378,-34.5828 32.780368,-54.56406 12.95816,-0.38251 25.45395,-4.90132 35.65955,-12.89544 2.15922,22.12638 -1.46693,50.5581 -14.64692,69.3832 3.06859,-0.5636 6.11393,-1.2473 9.129,-2.0493 3.83826,-1.0651 7.62084,-2.3214 11.33358,-3.7644 3.71219,-1.4431 7.34989,-3.0709 10.89947,-4.8773 3.54915,-1.8066 7.00575,-3.7895 10.35684,-5.9413 3.35188,-2.1525 6.59399,-4.4714 9.71419,-6.9478 3.11999,-2.4754 6.11424,-5.1054 8.97153,-7.8799 0.36722,-0.3891 0.73182,-0.7806 1.09378,-1.1746 -2.60204,-17.85957 -16.83236,-40.03755 -30.86307,-55.74238 4.76735,-8.84435 7.266,-18.7333 7.27207,-28.78069 -0.021,-2.8743 -0.24611,-5.74349 -0.6735,-8.58592 20.25731,9.18513 43.07704,26.53494 52.79848,47.36396 0.44067,-1.15171 0.86347,-2.31018 1.26827,-3.47499 1.17679,-3.80495 2.16256,-7.66636 2.95362,-11.56978 0.79154,-3.90311 1.38741,-7.84335 1.78537,-11.80598 0.39733,-3.96334 0.59619,-7.94408 0.59583,-11.92729 4.4e-4,-2.81936 -0.0989,-5.63784 -0.29791,-8.45017 -0.28228,-3.97319 -0.76309,-7.92978 -1.44064,-11.85493 -0.62776,-3.53416 -1.41449,-7.03823 -2.35779,-10.50154 -20.56165,-7.32804 -45.89823,-4.79548 -63.74906,-1.11372 -6.81835,-11.01918 -16.98234,-19.56874 -29.00647,-24.39915 18.07184,-12.93645 44.49019,-24.02091 67.37307,-22.03241 -1.38409,-1.66502 -2.8132,-3.2921 -4.28573,-4.87944 -2.77498,-2.85712 -5.6911,-5.57368 -8.73745,-8.13949 -3.04611,-2.56581 -6.21862,-4.97769 -9.50565,-7.22659 -3.28724,-2.24885 -6.68489,-4.3319 -10.18022,-6.24135 -3.49538,-1.90963 -7.08407,-3.64325 -10.75264,-5.19438 -3.66896,-1.55092 -7.41319,-2.91736 -11.21867,-4.09421 -1.42662,-0.39262 -2.86041,-0.75869 -4.30063,-1.09804 -14.14688,11.18369 -26.2293,34.57475 -32.8107,54.55552 -12.96018,0.38127 -25.4582,4.90015 -35.665394,12.89544 -2.15922,-22.12637 1.466931,-50.55807 14.646924,-69.38315 z"/>
  </clipPath>
  <filter style="color-interpolation-filters:sRGB" id="filter913" width="1.023" height="1.025" x="-.01" y="-.01">
   <feGaussianBlur id="feGaussianBlur915" stdDeviation="1.287"/>
  </filter>
  <filter style="color-interpolation-filters:sRGB" id="filter939" width="1.094" height="1.098" x="-.05" y="-.05">
   <feGaussianBlur id="feGaussianBlur941" stdDeviation="5.147"/>
  </filter>
 </defs>
 <g id="layer1" transform="matrix(0.86666673,0,0,0.86666673,5.7367765,-11.68816)">
  <g id="layer9" transform="translate(39.426333,0.62581482)">
   <g style="fill:#1c1616;filter:url(#filter939)" transform="translate(9.5361588,0.95382998)">
    <path style="opacity:0.1;fill:#1c1616" d="M 97.493527,31.767436 A 125.81618,125.81618 0 0 0 -28.322664,157.58362 125.81618,125.81618 0 0 0 97.493527,283.39979 125.81618,125.81618 0 0 0 223.30962,157.58362 125.81618,125.81618 0 0 0 97.493527,31.767436 Z m 14.297283,28.594577 a 94.362135,94.362135 0 0 1 94.36204,94.362157 94.362135,94.362135 0 0 1 -94.36204,94.36211 94.362135,94.362135 0 0 1 -94.362131,-94.36211 94.362135,94.362135 0 0 1 94.362131,-94.362157 z"/>
    <rect style="opacity:0.1;fill:#1c1616" width="91.503" height="91.503" x="-39.77" y="111.82" rx="18.3" ry="18.3"/>
    <rect style="opacity:0.1;fill:#1c1616" width="57.189" height="57.189" x="166.12" y="180.45" rx="11.437" ry="11.437"/>
    <rect style="opacity:0.1;fill:#1c1616" width="45.752" height="45.752" x="143.26" y="43.19" rx="9.151" ry="9.151"/>
   </g>
   <g transform="translate(9.5361588,0.95382998)" style="fill:#0c0c0c;filter:url(#filter913)">
    <path d="M 97.493527,31.767436 A 125.81618,125.81618 0 0 0 -28.322664,157.58362 125.81618,125.81618 0 0 0 97.493527,283.39979 125.81618,125.81618 0 0 0 223.30962,157.58362 125.81618,125.81618 0 0 0 97.493527,31.767436 Z m 14.297283,28.594577 a 94.362135,94.362135 0 0 1 94.36204,94.362157 94.362135,94.362135 0 0 1 -94.36204,94.36211 94.362135,94.362135 0 0 1 -94.362131,-94.36211 94.362135,94.362135 0 0 1 94.362131,-94.362157 z" style="opacity:0.1;fill:#0c0c0c"/>
    <rect width="91.503" height="91.503" x="-39.77" y="111.82" rx="18.3" ry="18.3" style="opacity:0.1;fill:#0c0c0c"/>
    <rect width="57.189" height="57.189" x="166.12" y="180.45" rx="11.437" ry="11.437" style="opacity:0.1;fill:#0c0c0c"/>
    <rect width="45.752" height="45.752" x="143.26" y="43.19" rx="9.151" ry="9.151" style="opacity:0.1;fill:#0c0c0c"/>
   </g>
   <g transform="translate(9.5361588,0.95382998)">
    <path style="opacity:0.1;fill:#0c0c0c" d="M 97.493527,31.767436 A 125.81618,125.81618 0 0 0 -28.322664,157.58362 125.81618,125.81618 0 0 0 97.493527,283.39979 125.81618,125.81618 0 0 0 223.30962,157.58362 125.81618,125.81618 0 0 0 97.493527,31.767436 Z m 14.297283,28.594577 a 94.362135,94.362135 0 0 1 94.36204,94.362157 94.362135,94.362135 0 0 1 -94.36204,94.36211 94.362135,94.362135 0 0 1 -94.362131,-94.36211 94.362135,94.362135 0 0 1 94.362131,-94.362157 z"/>
    <rect style="opacity:0.1;fill:#0c0c0c" width="91.503" height="91.503" x="-39.77" y="111.82" rx="18.3" ry="18.3"/>
    <rect style="opacity:0.1;fill:#0c0c0c" width="57.189" height="57.189" x="166.12" y="180.45" rx="11.437" ry="11.437"/>
    <rect style="opacity:0.1;fill:#0c0c0c" width="45.752" height="45.752" x="143.26" y="43.19" rx="9.151" ry="9.151"/>
   </g>
   <path style="fill:#3584e4" d="M 106.92925,34.828172 A 123.60888,123.60888 0 0 0 -16.679592,158.43706 123.60888,123.60888 0 0 0 106.92925,282.04593 123.60888,123.60888 0 0 0 230.53804,158.43706 123.60888,123.60888 0 0 0 106.92925,34.828172 Z M 120.9757,62.92109 A 92.706661,92.706661 0 0 1 213.68227,155.62777 92.706661,92.706661 0 0 1 120.9757,248.33441 92.706661,92.706661 0 0 1 28.269097,155.62777 92.706661,92.706661 0 0 1 120.9757,62.92109 Z"/>
   <path style="opacity:0.3;fill:#ffffff" d="m 106.92925,34.828172 a 123.60888,123.60888 0 0 0 -123.610225,123.610278 123.60888,123.60888 0 0 0 0.04732,0.95777 123.60888,123.60888 0 0 1 123.562905,-122.260356 123.60888,123.60888 0 0 1 123.56068,122.652486 123.60888,123.60888 0 0 0 0.0473,-1.3499 A 123.60888,123.60888 0 0 0 106.92925,34.828172 Z M 213.63296,156.58598 a 92.706664,92.706664 0 0 1 -92.65925,91.74879 92.706664,92.706664 0 0 1 -92.659199,-91.35442 92.706664,92.706664 0 0 0 -0.04732,0.95554 92.706664,92.706664 0 0 0 92.706519,92.70657 92.706664,92.706664 0 0 0 92.70658,-92.70657 92.706664,92.706664 0 0 0 -0.0473,-1.34991 z"/>
   <path style="opacity:0.2;fill:#101010" d="m 120.9757,60.613398 a 92.706664,92.706664 0 0 0 -92.70652,92.706582 92.706664,92.706664 0 0 0 0.04732,1.34991 92.706664,92.706664 0 0 1 92.6592,-91.7488 92.706664,92.706664 0 0 1 92.65925,91.35441 92.706664,92.706664 0 0 0 0.0473,-0.95552 92.706664,92.706664 0 0 0 -92.70657,-92.706582 z M -16.631656,157.08575 a 123.60888,123.60888 0 0 0 -0.04733,1.35216 A 123.60888,123.60888 0 0 0 106.92898,282.04594 123.60888,123.60888 0 0 0 230.537,158.43791 123.60888,123.60888 0 0 0 230.4897,157.48239 123.60888,123.60888 0 0 1 106.92898,279.73824 123.60888,123.60888 0 0 1 -16.631656,157.08575 Z"/>
   <rect style="fill:#ff7800" width="89.898" height="89.898" x="-27.92" y="113.48" rx="17.979" ry="17.979"/>
   <rect style="fill:#ff7800" width="56.186" height="56.186" x="174.35" y="180.9" rx="11.237" ry="11.237"/>
   <rect style="fill:#ff7800" width="44.949" height="44.949" x="151.89" y="46.05" rx="8.991" ry="8.991"/>
   <path style="opacity:0.3;fill:#ffffff" d="m 160.88101,45.987637 c -4.98084,0 -8.98963,4.011039 -8.98963,8.991887 v 2.307692 c 0,-4.980848 4.00879,-8.991887 8.98963,-8.991887 h 26.96665 c 4.98084,0 8.99189,4.011039 8.99189,8.991887 v -2.307692 c 0,-4.980848 -4.01105,-8.991887 -8.99189,-8.991887 z M -9.9444974,113.41327 c -9.9604026,0 -17.9792636,8.0166 -17.9792636,17.97702 v 2.30769 c 0,-9.96042 8.018872,-17.97701 17.9792636,-17.97701 H 43.995558 c 9.960427,0 17.979265,8.01659 17.979265,17.97701 v -2.30769 c 0,-9.96042 -8.01885,-17.97702 -17.979265,-17.97702 z M 185.58729,180.83664 c -6.22509,0 -11.23648,5.01139 -11.23648,11.23648 v 2.30769 c 0,-6.22508 5.01139,-11.23647 11.23648,-11.23647 h 33.71169 c 6.2251,0 11.23648,5.01139 11.23648,11.23647 v -2.30769 c 0,-6.22509 -5.01138,-11.23648 -11.23648,-11.23648 z"/>
   <path style="opacity:0.2;fill:#090909" d="m 151.85774,79.885812 v 2.307692 c 0,4.980854 4.0088,8.989638 8.98964,8.989638 h 26.96664 c 4.98084,0 8.99189,-4.008784 8.99189,-8.989638 v -2.307692 c 0,4.980854 -4.01105,8.989638 -8.99189,8.989638 h -26.96664 c -4.98084,0 -8.98964,-4.008784 -8.98964,-8.989638 z M -27.957397,183.26997 v 2.30769 c 0,9.96041 8.018861,17.97926 17.9792646,17.97926 H 43.961923 c 9.960403,0 17.979264,-8.01885 17.979264,-17.97926 v -2.30769 c 0,9.96041 -8.018861,17.97926 -17.979264,17.97926 H -9.9781324 c -9.9604036,0 -17.9792646,-8.01885 -17.9792646,-17.97926 z m 202.274577,40.45448 v 2.30769 c 0,6.22511 5.01139,11.23648 11.23648,11.23648 h 33.71169 c 6.2251,0 11.23647,-5.01137 11.23647,-11.23648 v -2.30769 c 0,6.22511 -5.01137,11.23647 -11.23647,11.23647 h -33.71169 c -6.22509,0 -11.23648,-5.01136 -11.23648,-11.23647 z"/>
  </g>
 </g>
</svg>
